docs/img/logo.svg

<svg width="98" height="29" viewBox="0 0 98 29" fill="none" xmlns="http://www.w3.org/2000/svg">
<path fill-rule="evenodd" clip-rule="evenodd" d="M15.5948 15.3521C13.3858 14.4561 12.4058 16.8001 11.2078 17.2191C8.4718 18.1791 6.3418 14.2021 6.3418 14.2021C6.3418 14.2021 7.2338 13.8561 8.3418 13.0401C10.0218 11.8001 10.7118 11.0341 12.1808 10.5601C13.3738 10.6991 15.1138 13.0091 15.5948 15.3521Z" fill="#23B175"/>
<path fill-rule="evenodd" clip-rule="evenodd" d="M18.8378 18.3386C20.8728 14.3976 24.2878 12.4166 24.2878 12.4166C24.2878 12.4166 22.5358 10.7666 19.5188 9.94962C15.8898 8.97062 13.4258 9.95962 13.4258 9.95962C13.4258 9.95962 16.0298 11.2856 16.8158 15.6186C17.2748 18.1586 18.7158 18.3386 18.8378 18.3386Z" fill="#EC5956"/>
<path fill-rule="evenodd" clip-rule="evenodd" d="M14.0622 0.0250324C12.4332 -0.0659676 10.6592 0.0860324 8.73519 0.565032C3.19819 1.95103 -2.30381 7.84103 0.995192 12.417C3.99819 16.359 8.57319 11.016 11.7182 9.41503C10.4942 6.26803 11.6662 2.87803 14.0622 0.0250324Z" fill="#27A8E0"/>
<path fill-rule="evenodd" clip-rule="evenodd" d="M15.3926 0.156738C13.0266 2.78274 11.7886 5.92774 12.7526 8.96974C19.5276 6.43874 25.1066 11.5487 25.1066 11.5487C25.1066 11.5487 26.4596 8.04374 23.7846 4.70074C22.1766 2.69174 19.2936 0.716738 15.3926 0.156738Z" fill="#FAAD40"/>
<path fill-rule="evenodd" clip-rule="evenodd" d="M34.5561 8.97045V12.8204C34.9101 12.8624 35.5101 12.9234 36.2411 12.9234C37.9681 12.9234 38.9061 12.1974 38.9061 10.8234C38.9061 9.59445 37.9681 8.97045 36.3651 8.97045H34.5561ZM34.5561 3.06145V6.74345H36.2811C37.4681 6.74345 38.4461 6.14245 38.4461 4.81045C38.4461 3.62345 37.5311 2.99945 36.1561 2.99945C35.5741 2.99945 35.0131 3.02145 34.5561 3.06145ZM31.9941 0.709445C32.8081 0.668445 34.7431 0.606445 36.1981 0.606445C39.6731 0.606445 40.9861 2.18845 40.9861 4.20645C40.9861 5.86945 40.1521 6.93245 38.9061 7.51445V7.55545C40.3391 7.91045 41.4641 9.01145 41.4641 10.9464C41.4641 13.9434 39.1351 15.3184 36.0521 15.3184C34.7201 15.3184 32.8511 15.2754 31.9941 15.2134V0.709445Z" fill="#333333"/>
<path fill-rule="evenodd" clip-rule="evenodd" d="M43.2891 15.2331V5.87012H45.6811V11.8001L50.0511 5.87012H52.4441V15.2331H50.0511V9.30512L45.6811 15.2331H43.2891Z" fill="#333333"/>
<path fill-rule="evenodd" clip-rule="evenodd" d="M60.0863 10.3221L64.1223 15.2331H61.0033L57.2963 10.5101L60.6683 5.87012H63.6863L60.0863 10.3221ZM54.8223 15.2331H57.2143V5.87012H54.8223V15.2331Z" fill="#333333"/>
<path fill-rule="evenodd" clip-rule="evenodd" d="M65.252 15.2331V5.87012H67.643V11.8001L72.016 5.87012H74.407V15.2331H72.016V9.30512L67.643 15.2331H65.252Z" fill="#333333"/>
<path fill-rule="evenodd" clip-rule="evenodd" d="M82.1336 15.2331C80.7606 18.5851 79.8856 19.3951 78.5126 19.3951C77.6596 19.3951 77.0356 19.0611 76.4936 18.6691L77.2646 16.8561C77.5136 17.0021 77.8676 17.1901 78.2406 17.1901C78.8446 17.1901 79.2796 16.7121 79.6766 15.7341L79.8856 15.2331L75.5566 5.87012H78.4276L80.6136 10.9891C80.8036 11.4471 80.9276 11.8841 81.0716 12.3431C81.1536 11.9061 81.2386 11.4471 81.4036 10.9681L83.0906 5.87012H85.8166L82.1336 15.2331Z" fill="#333333"/>
<path fill-rule="evenodd" clip-rule="evenodd" d="M86.9648 5.86963H89.1278L92.3108 9.78263L95.3288 5.86963H97.4318V15.2326H95.0358V9.51263L92.2718 13.0076H92.2078L89.3568 9.51263V15.2326H86.9648V5.86963Z" fill="#333333"/>
<path fill-rule="evenodd" clip-rule="evenodd" d="M0.265625 22.3306H4.58462V22.9316H2.74463V27.5896H2.10563V22.9316H0.265625V22.3306Z" fill="#333333"/>
<path fill-rule="evenodd" clip-rule="evenodd" d="M6.46027 22.9314V24.9584C6.71627 24.9824 6.96427 24.9974 7.22727 24.9974C8.00027 24.9974 8.46727 24.5994 8.46727 23.9384C8.46727 23.3144 8.09127 22.9164 7.25727 22.9164C7.04627 22.9164 6.70827 22.9234 6.46027 22.9314ZM5.82227 27.5894V22.3304C6.11427 22.3304 6.86627 22.3154 7.19627 22.3154C8.69827 22.3154 9.14227 23.1264 9.14227 23.9454C9.14227 24.8014 8.53327 25.5984 7.24927 25.5984C7.03827 25.5984 6.72327 25.5904 6.46027 25.5674V27.5894H5.82227Z" fill="#333333"/>
<path fill-rule="evenodd" clip-rule="evenodd" d="M10.6797 22.3306H13.6467V22.9316H11.3187V24.6286H13.4217V25.2296H11.3187V26.9876H13.7217V27.5896H10.6797V22.3306Z" fill="#333333"/>
<path fill-rule="evenodd" clip-rule="evenodd" d="M18.906 25.2076H16.014V27.5896H15.375V22.3306H16.014V24.6056H18.906V22.3306H19.544V27.5896H18.906V25.2076Z" fill="#333333"/>
<path fill-rule="evenodd" clip-rule="evenodd" d="M22.3884 25.3963H24.2814L23.3344 23.1493L22.3884 25.3963ZM23.0794 22.3003H23.6274L25.8884 27.5893H25.2044L24.5304 25.9963H22.1334L21.4634 27.5893H20.8184L23.0794 22.3003Z" fill="#333333"/>
<path fill-rule="evenodd" clip-rule="evenodd" d="M30.9425 24.8396L33.1515 27.5896H32.4075L30.2445 24.8466L32.3255 22.3306H33.0685L30.9425 24.8396ZM29.4695 27.5896H30.1095V22.3306H29.4695V27.5896ZM26.5185 22.3306H27.2625L29.3425 24.8466L27.1795 27.5896H26.4355L28.6445 24.8466L26.5185 22.3306Z" fill="#333333"/>
<path fill-rule="evenodd" clip-rule="evenodd" d="M34.4648 22.3306H37.4318V22.9316H35.1028V24.6286H37.2058V25.2296H35.1028V26.9876H37.5068V27.5896H34.4648V22.3306Z" fill="#333333"/>
<path fill-rule="evenodd" clip-rule="evenodd" d="M39.7962 22.9314V24.9584C40.0512 24.9824 40.2992 24.9974 40.5622 24.9974C41.3352 24.9974 41.8012 24.5994 41.8012 23.9384C41.8012 23.3144 41.4262 22.9164 40.5912 22.9164C40.3813 22.9164 40.0432 22.9234 39.7962 22.9314ZM39.1562 27.5894V22.3304C39.4502 22.3304 40.2012 22.3154 40.5312 22.3154C42.0343 22.3154 42.4773 23.1264 42.4773 23.9454C42.4773 24.8014 41.8682 25.5984 40.5853 25.5984C40.3743 25.5984 40.0592 25.5904 39.7962 25.5674V27.5894H39.1562Z" fill="#333333"/>
<mask id="mask0_0_4066" style="mask-type:alpha" maskUnits="userSpaceOnUse" x="0" y="0" width="98" height="29">
<path fill-rule="evenodd" clip-rule="evenodd" d="M0 28.565H97.866V0H0V28.565Z" fill="white"/>
</mask>
<g mask="url(#mask0_0_4066)">
<path fill-rule="evenodd" clip-rule="evenodd" d="M48.1456 27.5901H48.7846V22.3311H48.1456V27.5901ZM44.6526 24.8911V26.9801C44.8556 26.9881 45.0436 27.0031 45.2836 27.0031C46.1476 27.0031 46.6216 26.6271 46.6216 25.8831C46.6216 25.2151 46.1546 24.8461 45.3076 24.8461C45.1346 24.8461 44.9156 24.8621 44.6526 24.8911ZM44.6526 24.2831C44.9386 24.2611 45.1796 24.2461 45.3526 24.2461C46.6736 24.2461 47.2976 24.8771 47.2976 25.8691C47.2976 26.9731 46.5176 27.6041 45.2096 27.6041C44.7596 27.6041 44.3226 27.5901 44.0156 27.5901V22.3311H44.6526V24.2831Z" fill="#333333"/>
<path fill-rule="evenodd" clip-rule="evenodd" d="M53.395 26.9881H56.061V22.9311H54.222L54.154 23.8711C54.027 25.6801 53.59 26.7481 53.395 26.9881ZM52.125 26.9881H52.689C52.906 26.7171 53.441 25.5841 53.552 23.3831L53.606 22.3311H56.701V26.9881H57.415V28.5651H56.813V27.5901H52.727V28.5651H52.125V26.9881Z" fill="#333333"/>
<path fill-rule="evenodd" clip-rule="evenodd" d="M61.9923 22.9311H60.0853L59.9943 23.9231C59.6863 27.2661 58.9803 27.6951 58.1543 27.5891L58.1623 26.9501C58.5383 26.9881 59.1683 26.7991 59.4083 23.3821L59.4833 22.3301H62.6313V27.5891H61.9923V22.9311Z" fill="#333333"/>
<path fill-rule="evenodd" clip-rule="evenodd" d="M67.0464 25.0341V22.9311C66.8734 22.9241 66.5594 22.9091 66.3334 22.9091C65.5144 22.9091 65.0794 23.3891 65.0794 24.0131C65.0794 24.5691 65.5294 24.9591 65.9874 25.0341H67.0464ZM67.0464 25.6371H66.0634L64.7024 27.5901H63.9824L65.4394 25.5231C64.8984 25.3051 64.4024 24.8021 64.4024 24.0511C64.4024 23.1041 65.0334 22.3081 66.4524 22.3081C66.8064 22.3081 67.3774 22.3311 67.6854 22.3311V27.5901H67.0464V25.6371Z" fill="#333333"/>
<path fill-rule="evenodd" clip-rule="evenodd" d="M71.7012 22.3306H72.3472L74.3222 25.0266L76.2152 22.3306H76.8232V27.5896H76.1842V23.3376L74.3222 25.9506H74.2252L72.3402 23.3586V27.5896H71.7012V22.3306Z" fill="#333333"/>
<path fill-rule="evenodd" clip-rule="evenodd" d="M81.0453 27.0634C82.2473 27.0634 83.0503 26.1474 83.0503 24.9594C83.0503 23.7354 82.1723 22.8564 81.0453 22.8564C79.9023 22.8564 79.0393 23.7354 79.0393 24.9594C79.0393 26.1534 79.9183 27.0634 81.0453 27.0634ZM81.0453 22.2554C82.5693 22.2554 83.7273 23.3594 83.7273 24.9594C83.7273 26.5214 82.5693 27.6644 81.0453 27.6644C79.5203 27.6644 78.3633 26.5594 78.3633 24.9594C78.3633 23.4344 79.4833 22.2554 81.0453 22.2554Z" fill="#333333"/>
<path fill-rule="evenodd" clip-rule="evenodd" d="M84.7773 26.8374L85.1313 26.4094C85.4683 26.8084 86.0313 27.0634 86.4603 27.0634C87.1433 27.0634 87.6543 26.7094 87.6543 26.0564C87.6543 25.5374 87.2783 25.1984 86.6253 25.1984H86.0163V24.5994H86.5793C87.0233 24.5994 87.4513 24.2384 87.4513 23.7114C87.4513 23.1424 87.0383 22.8564 86.4983 22.8564C85.9793 22.8564 85.6183 23.0664 85.3023 23.4414L84.9273 23.0214C85.2803 22.5634 85.8813 22.2554 86.5653 22.2554C87.4733 22.2554 88.0903 22.7584 88.0903 23.6524C88.0903 24.0954 87.8413 24.5914 87.3313 24.8544V24.8764C87.9693 24.9974 88.2923 25.5154 88.2923 26.1164C88.2923 27.0854 87.4603 27.6634 86.4983 27.6634C85.6933 27.6634 85.0553 27.2584 84.7773 26.8374Z" fill="#333333"/>
<path fill-rule="evenodd" clip-rule="evenodd" d="M89.9805 22.3306H92.9095V22.9316H90.6185V27.5896H89.9805V22.3306Z" fill="#333333"/>
<path fill-rule="evenodd" clip-rule="evenodd" d="M94.3659 25.3963H96.2609L95.3139 23.1493L94.3659 25.3963ZM95.0569 22.3003H95.6059L97.8659 27.5893H97.1829L96.5079 25.9963H94.1109L93.4429 27.5893H92.7969L95.0569 22.3003Z" fill="#333333"/>
</g>
</svg>

<svg width="98" height="29" viewBox="0 0 98 29" fill="none" xmlns="http://www.w3.org/2000/svg"><path fill-rule="evenodd" clip-rule="evenodd" d="M15.595 15.352c-2.21-.896-3.19 1.448-4.387 1.867-2.736.96-4.866-3.017-4.866-3.017s.892-.346 2-1.162c1.68-1.24 2.37-2.006 3.839-2.48 1.193.14 2.933 2.45 3.414 4.792z" fill="#23B175"/><path fill-rule="evenodd" clip-rule="evenodd" d="M18.838 18.339c2.035-3.941 5.45-5.922 5.45-5.922s-1.752-1.65-4.77-2.467c-3.628-.98-6.092.01-6.092.01s2.604 1.326 3.39 5.659c.459 2.54 1.9 2.72 2.022 2.72z" fill="#EC5956"/><path fill-rule="evenodd" clip-rule="evenodd" d="M14.062.025c-1.629-.091-3.403.061-5.327.54C3.198 1.951-2.304 7.841.995 12.417c3.003 3.942 7.578-1.401 10.723-3.002-1.224-3.147-.052-6.537 2.344-9.39z" fill="#27A8E0"/><path fill-rule="evenodd" clip-rule="evenodd" d="M15.393.157c-2.366 2.626-3.604 5.77-2.64 8.813 6.775-2.531 12.354 2.579 12.354 2.579S26.46 8.044 23.785 4.7C22.177 2.69 19.294.717 15.393.157z" fill="#FAAD40"/><path fill-rule="evenodd" clip-rule="evenodd" d="M34.556 8.97v3.85c.354.042.954.103 1.685.103 1.727 0 2.665-.726 2.665-2.1 0-1.229-.938-1.853-2.54-1.853h-1.81zm0-5.909v3.682h1.725c1.187 0 2.165-.6 2.165-1.933 0-1.187-.915-1.81-2.29-1.81-.582 0-1.143.021-1.6.061zM31.994.71c.814-.04 2.75-.103 4.204-.103 3.475 0 4.788 1.582 4.788 3.6 0 1.663-.834 2.726-2.08 3.308v.041c1.433.355 2.558 1.456 2.558 3.391 0 2.997-2.329 4.372-5.412 4.372-1.332 0-3.2-.043-4.058-.105V.71zM43.29 15.233V5.87h2.391v5.93l4.37-5.93h2.393v9.363h-2.393V9.305l-4.37 5.928H43.29zm16.796-4.911l4.036 4.911h-3.119l-3.707-4.723 3.372-4.64h3.018l-3.6 4.452zm-5.264 4.911h2.392V5.87h-2.392v9.363zm10.43 0V5.87h2.391v5.93l4.373-5.93h2.391v9.363h-2.391V9.305l-4.373 5.928h-2.391zm16.882 0c-1.373 3.352-2.248 4.162-3.621 4.162-.853 0-1.477-.334-2.02-.726l.772-1.813c.249.146.603.334.976.334.604 0 1.039-.478 1.436-1.456l.209-.5-4.33-9.364h2.872l2.186 5.12c.19.457.314.894.458 1.353.082-.437.167-.896.332-1.375L83.09 5.87h2.726l-3.683 9.363zm4.831-9.363h2.163l3.183 3.913 3.018-3.913h2.103v9.363h-2.396v-5.72l-2.764 3.495h-.064l-2.851-3.495v5.72h-2.392V5.87zM.266 22.33h4.319v.602h-1.84v4.658h-.64v-4.658H.266v-.601zm6.194.601v2.027c.256.024.504.04.767.04.773 0 1.24-.399 1.24-1.06 0-.624-.376-1.022-1.21-1.022-.21 0-.549.007-.797.015zm-.638 4.658V22.33c.292 0 1.044-.015 1.374-.015 1.502 0 1.946.811 1.946 1.63 0 .856-.609 1.653-1.893 1.653-.21 0-.526-.008-.789-.03v2.021h-.638zm4.858-5.259h2.967v.602h-2.328v1.697h2.103v.6h-2.103v1.759h2.403v.602H10.68v-5.26zm8.226 2.878h-2.892v2.382h-.639v-5.26h.639v2.276h2.892V22.33h.638v5.259h-.638v-2.382zm3.482.188h1.893l-.947-2.247-.946 2.247zm.691-3.096h.548l2.261 5.29h-.684l-.674-1.594h-2.397l-.67 1.593h-.645L23.08 22.3zm7.863 2.54l2.21 2.75h-.745l-2.162-2.743 2.08-2.516h.743l-2.125 2.509zm-1.473 2.75h.64v-5.26h-.64v5.26zm-2.95-5.26h.744l2.08 2.517-2.163 2.743h-.744l2.209-2.743-2.127-2.516zm7.946 0h2.967v.602h-2.33v1.697h2.104v.6h-2.103v1.759h2.404v.602h-3.042v-5.26zm5.331.601v2.027c.255.024.503.04.766.04.773 0 1.24-.399 1.24-1.06 0-.624-.376-1.022-1.21-1.022-.21 0-.549.007-.796.015zm-.64 4.658V22.33c.294 0 1.045-.015 1.375-.015 1.503 0 1.946.811 1.946 1.63 0 .856-.609 1.653-1.892 1.653-.21 0-.526-.008-.789-.03v2.021h-.64z" fill="#333"/><mask id="mask0_0_4066" style="mask-type:alpha" maskUnits="userSpaceOnUse" x="0" y="0" width="98" height="29"><path fill-rule="evenodd" clip-rule="evenodd" d="M0 28.565h97.866V0H0v28.565z" fill="#fff"/></mask><g mask="url(#mask0_0_4066)" fill-rule="evenodd" clip-rule="evenodd" fill="#333"><path d="M48.146 27.59h.639v-5.259h-.64v5.26zm-3.493-2.699v2.09c.203.007.39.022.63.022.865 0 1.339-.376 1.339-1.12 0-.668-.467-1.037-1.314-1.037-.173 0-.392.016-.655.045zm0-.608c.286-.022.527-.037.7-.037 1.32 0 1.945.631 1.945 1.623 0 1.104-.78 1.735-2.088 1.735-.45 0-.887-.014-1.194-.014v-5.259h.637v1.952zm8.742 2.705h2.666v-4.057h-1.839l-.068.94c-.127 1.81-.564 2.877-.759 3.117zm-1.27 0h.564c.217-.27.752-1.404.863-3.605l.054-1.052h3.095v4.657h.714v1.577h-.602v-.975h-4.086v.975h-.602v-1.577zm9.867-4.057h-1.907l-.09.992c-.309 3.343-1.015 3.772-1.84 3.666l.007-.639c.376.038 1.006-.15 1.246-3.568l.075-1.052h3.148v5.26h-.639v-4.66zm5.054 2.103v-2.103c-.173-.007-.487-.022-.713-.022-.819 0-1.254.48-1.254 1.104 0 .556.45.946.908 1.021h1.06zm0 .603h-.983l-1.36 1.953h-.72l1.456-2.067c-.54-.218-1.037-.72-1.037-1.472 0-.947.631-1.743 2.05-1.743.354 0 .925.023 1.233.023v5.26h-.639v-1.954zm4.655-3.307h.646l1.975 2.697 1.893-2.696h.608v5.259h-.639v-4.252l-1.862 2.613h-.097l-1.885-2.592v4.23h-.639v-5.258zm9.344 4.733c1.202 0 2.005-.916 2.005-2.104 0-1.224-.878-2.103-2.005-2.103-1.143 0-2.006.88-2.006 2.103 0 1.194.88 2.104 2.006 2.104zm0-4.808c1.524 0 2.682 1.104 2.682 2.704 0 1.562-1.158 2.705-2.682 2.705-1.525 0-2.682-1.105-2.682-2.705 0-1.525 1.12-2.704 2.682-2.704zm3.732 4.582l.354-.428c.337.4.9.654 1.33.654.682 0 1.193-.354 1.193-1.007 0-.519-.376-.858-1.029-.858h-.609V24.6h.563a.88.88 0 00.872-.888c0-.569-.413-.855-.953-.855-.519 0-.88.21-1.196.585l-.375-.42c.353-.458.954-.766 1.638-.766.908 0 1.525.503 1.525 1.397 0 .443-.249.94-.759 1.202v.022c.638.121.961.64.961 1.24 0 .97-.832 1.547-1.794 1.547-.805 0-1.443-.405-1.72-.826zm5.203-4.507h2.93v.602h-2.291v4.658h-.638v-5.26zm4.386 3.066h1.895l-.947-2.247-.948 2.247zm.69-3.096h.55l2.26 5.29h-.683l-.675-1.594H94.11l-.668 1.593h-.646l2.26-5.289z"/></g></svg>
